X:1
T:Our Father’s Business
T:Our Father’s Business
T:Inge Eildert Diekenga
T:Inge Eildert Diekenga, 1888
T:Public Domain Courtesy of the Cyber Hymnal™
T:Public Domain Courtesy of the Cyber Hymnal™
C:Inge Eildert Diekenga
Z:Public Domain
Z:Courtesy of the Cyber Hymnal™
%%score ( 1 2 ) 3
L:1/8
Q:1/4=112
M:4/4
K:Bb
V:1 treble 
V:2 treble 
V:3 bass 
V:1
 [B,D][CE] | [DF]>[DF] [DB]>[DF] [EA]2 [EG]2 | [DF]4 [B,D]2 [B,D]>[DF] | [CE]2 [Ec]>[Ec] [Ec]2 | %4
w: 1.~Let us|be a- bout our Fa- ther’s|busi- ness, Ev- ’ry|day, as we go|
w: 2.~Do you|ask what is the work He|sends us? ’Tis what-|e’er we can do,|
w: 3.~When in|Heav- en and the toil is|end- ed, Oh, what|bliss it will be|
 [EA]>[Ec] | [DB]2 [Fd]>[Fd] [Fd]2 [B,D][CE] | [DF]>[DF] [DB]>[DF] [EA]2 [EG]2 | %7
w: On our|way here be- low: Nev- er|let it suf- fer thro’ re-|
w: ’Tis to|bear and be true, And to|use the tal- ents that He|
w: In that|place then to see Those dear|souls whom we on earth be-|
 [DF]4 [B,D]2 [B,D]2 | DF[FA][FB] [FA]2 [=EG]2 | F6 ||"^Refrain" GA | [FB]2 [FB]>[FB] [FB]2 | %12
w: miss- ness, But|seek to make it thrive and|grow.|||
w: lends us, That|o- thers may ac- cept Him|too.|Then re-|spond to the call,|
w: friend- ed, And|led to Him Who made them|free.|||
 [FB]>[Ec] | [Fd]2 [Fd]>[Fd] [Fd]2 [Gc][FB] | [Ge]2 [Ge]>[Ge] [GB][GB] [Ge]2 | [Fd]6 [Ec][DB] | %16
w: ||||
w: He has|use for us all, And His|work is a la- bor of|love; And the|
w: ||||
 [EG]2 [EG]>[EG] [Ec]2 [Ec]>[Ec] | [EF]2 [EF]>[EF] [FB]2 [FB]>[FA] | %18
w: ||
w: days soon will come In the|great Har- vest Home, For our|
w: ||
 [EG]2 [Ge][Ge] [Fd]>[Fd] [Ec]2 | [DB]6 z2 |] %20
w: ||
w: rest and re- joic- ing a-|bove.|
w: ||
V:2
 x2 | x8 | x8 | x6 | x2 | x8 | x8 | x8 | DF x6 | F6 || GA | x6 | x2 | x8 | x8 | x8 | x8 | x8 | x8 | %19
 x8 |] %20
V:3
 [B,,F,][B,,F,] | [B,,B,]>[B,,B,] [B,,F,]>[B,,B,] [E,B,]2 [E,B,]2 | %2
 [B,,B,]4 [B,,F,]2 [B,,F,]>[B,,F,] | [F,A,]2 [F,C]>[F,C] [F,C]2 | [F,C]>[F,A,] | %5
 [B,,B,]2 [B,,F,]>[B,,F,] [B,,F,]2 [B,,F,][B,,F,] | %6
 [B,,B,]>[B,,B,] [B,,F,]>[B,,B,] [E,B,]2 [E,B,]2 | [B,,B,]4 [B,,F,]2 [B,,F,]2 | %8
 [F,A,][F,A,][F,C][F,D] [C,C]2 [C,B,]2 | [F,A,]6 || [F,C][F,C] | [B,,D]2 [B,,D]>[B,,D] [B,,D]2 | %12
 [B,D]>[F,C] | [B,,B,]2 [B,,B,]>[B,,B,] [B,,B,]2 [C,A,][D,B,] | %14
 [E,B,]2 [E,B,]>[E,B,] [E,E][E,E] [E,B,]2 | [B,,B,]6 [B,,F,][B,,F,] | %16
 [E,B,]2 [E,B,]>[E,B,] [F,A,]2 [F,A,]>[F,A,] | [F,C]2 [F,C]>[F,C] [B,,D]2 [B,,D]>[C,A,] | %18
 [E,B,]2 [E,B,][E,B,] [F,B,]>[F,B,] [F,A,]2 | [B,,F,]6 z2 |] %20

